X:1
T:His Love Is Always True
T:His Love Is Always True
T:Ira Bishop Wilson
T:Rene Bronner, 1915
T:Public Domain Courtesy of the Cyber Hymnal™
T:Public Domain Courtesy of the Cyber Hymnal™
C:Ira Bishop Wilson
Z:Public Domain
Z:Courtesy of the Cyber Hymnal™
%%score ( 1 2 ) ( 3 4 )
L:1/8
Q:1/4=88
M:2/4
K:Bb
V:1 treble 
V:2 treble 
V:3 bass 
V:4 bass 
V:1
 [Fd][=E^c] [Fd][DF] | [^C=E][CG] [DF]2 | [Fd][=E^c] [Fd][DF] | [^C=E][CG] [DF]2 | %4
w: 1.~There’s a love that|can not fade,|Nor thro’ sun- shine|nor thro’ shade,|
w: 2.~There’s a love that|knows no fear,|For the ones His|heart holds dear;|
w: 3.~There’s a love that|ne- ver dies,|And it reach- es|to the skies;|
 [EG][FA] [GB][_Gc] | [Fd][FB] [Fc][Fd] | [Fe]2 [Fd]2 | [Fc]4 | [Fd][=E^c] [Fd][DF] | %9
w: But re- mains the|same tho’ king- doms|rise and|fall;|It is giv- en|
w: And He wat- ches|o’er and keeps them|in His|care;|’Round them His pro-|
w: It will shine for-|ev- er Heav’n’s un-|set- ting|sun;|To us all ’tis|
 [^C=E][CG] [DF]2 | [Fd][=E^c] [Fd][DF] | [^C=E][CG] [DF]2 | [C=E][EG] [Ec][GB] | %13
w: free of cost,|That no soul need|e’er be lost;|’Tis the love of|
w: tect- ing arm,|Where they’re safe and|free from harm;|’Tis the love that|
w: giv- en free|Now, and thro’ e-|ter- ni- ty;|’Tis the love of|
 [FA][Cc] [DF][DG] |!<(! [^CA]2 [DA]2 | !fermata![EA]4!<)! ||"^Refrain" [DF] [DF]2 [Dd] | %17
w: Je- sus— ’tis the|best of|all.||
w: ev- ery one may|free- ly|share.|His love is|
w: Je- sus— true and|on- ly|One.||
 [Ed][Ec] [Ec]2 | [EF] [EF]2 [Ec] | [Dc][DB] [DB]2 |"^Girls" e4- [Ec][EG][E^G] | e4 [Ec][EG][E_G] | %22
w: |||||
w: al- ways true,|His skies are|al- ways blue,|Flow’rs * are bloom-|ing in His sun-|
w: |||||
 [DF][Fd] [=Ed][EB] | [Ec]4 | [DF] [DF]2 [Dd] | [Ed][Ec] [Ec]2 | [EF] [EF]2 [Ec] | [Dc][DB] [DB]2 | %28
w: ||||||
w: for me and you;|His|love is al-|ways true, Shin-|ing the long|days thro’ Je-|
w: ||||||
 [Gc][GB] [EG][EB] |"^Very slowly" [EG]!<(![DF] [Ge][Fd] | [Ec] !fermata![Fd]2!<)! [Ec] | [DB]6 |] %32
w: ||||
w: sus is a friend|worth hav- ing, His|love is true.||
w: ||||
V:2
 x4 | x4 | x4 | x4 | x4 | x4 | x4 | x4 | x4 | x4 | x4 | x4 | x4 | x4 | x4 | x4 || x4 | x4 | x4 | %19
w: |||||||||||||||||||
w: |||||||||||||||||||
 x4 | [EA] x6 | [EA] x6 | x4 | x4 | x4 | x4 | x4 | x4 | x4 | x4 | x4 | x6 |] %32
w: |||||||||||||
w: ||Made|||||||||||
V:3
 [B,,B,][B,,B,] [B,,B,][B,,B,] | [B,,G,][B,,=E,] [B,,F,]2 | [B,,B,][B,,B,] [B,,B,][B,,B,] | %3
 [B,,G,][B,,=E,] (F,B,) | [E,B,][E,B,] [E,B,][E,B,] | [B,,B,][D,B,] [C,A,][B,,B,] | [A,,C]2 B,2 | %7
 (B,2 A,2) | [B,,B,][B,,B,] [B,,B,][B,,B,] | [B,,G,][B,,=E,] [B,,F,]2 | %10
 [B,,B,][B,,B,] [B,,B,][B,,B,] | [B,,G,][B,,=E,] (F,B,) | [C,B,][C,B,] [C,G,][C,C] | %13
 [F,C][=E,G,] [D,A,][B,,D,] | [A,,=E,]2 [D,F,]2 | !fermata![C,F,]4 || [B,,F,] [B,,F,]2 [B,,^F,] | %17
 [B,,G,][B,,G,] [B,,G,]2 | [C,A,] [C,A,]2 [F,A,] | [B,,F,][B,,F,] [B,,B,]2 | %20
 C,[F,A,C] [F,A,C] z x3 | F,,[F,A,C] [F,A,C] z x3 | B,,[F,B,D] C,[G,C] | (F,,A,G,F,) | %24
 [B,,F,] [B,,F,]2 [B,,^F,] | [B,,G,][B,,G,] [B,,G,]2 | [C,A,] [C,A,]2 [F,A,] | %27
 [B,,F,][B,,F,] [B,,B,]2 | [E,B,][E,B,] [E,B,][G,B,] | B,B, B,B, | [F,A,] !fermata![F,A,]2 F, | %31
 [B,,F,]6 |] %32
V:4
 x4 | x4 | x4 | x2 B,,2 | x4 | x4 | x2 (B,,D,) | F,4 | x4 | x4 | x4 | x2 B,,2 | x4 | x4 | x4 | %15
 x4 || x4 | x4 | x4 | x4 | x7 | x7 | x4 | x4 | x4 | x4 | x4 | x4 | x4 | B,B, B,B, | x3 F, | x6 |] %32

